!!!COM: Richard Strauss
!!!CNT: Deutscher
!!!TXO: Deutsche 
!!!OTL: Heimkehr
!!!OPS: Opus 15
!!!ONM: No. 5
!!!LYR: A.F. von Schack
!!!ENC: Brian Bice
!!!YOR: Lieder, Complete Edition, vol. 1
!!!ODT: 1886/
!!NB: Vocal melody and text only encoded.
**kern	**silbe
*clefG2	*
*k[f#c#g#d#]	*
*M3/8	*
=1	=1
{4b	{Lei-
8b	-ser
=2	=2
4cc#	schwan-
16cc#	-ken
16cc#	doe
=3	=3
(8.g#	A2-
16a)	|
8g#}	-ste,}
=4	=4
16r	.
{16g#	{der
8.ddn	Kahn
16ddn	fliegt
=5	=5
8.ddn	u-
16a	-fer-
8f#}	-wa2rts,}
=7	=7
{8ddn	{heim
8.ddn	kehrt
16a	die
=8	=8
8b-	Tau-
8ccn	-be
8ddn	zum
=9	=9
(8.e	Ne-
16f#)	|
8e}	-ste,}
=10	=10
16r	.
{16e	{zu
[4ee	dir
=11	=11
4ee]	|
8b	kehrt
=12	=12
(4a	heim
16g#)	|
16f#	mein
=13	=13
4e}	Herz.}
8r	.
=16	=16
16r	.
{16B	{Ge-
16cn	-nug
16d#	am
24e	schim-
24gn	-mer-
24b	-uden
=17	=17
8b	Ta-
8a}	-ge,}
8r	.
=18	=18
16r	.
{16b	{wenn
8.ccn	rings
16a	das
=19	=19
16.gn	Le-
32a	-ben
8b}	la2rmt.}
8r	.
=20	=20
8r	.
16r	.
{16d#	{mit
(24e	ir-
24gn)	|
24b	-rem
=21	=21
16.ee	Flu2-
32ccn	-gel-
8b	-schla-
8a}	-ge}
=22	=22
8r	.
{8a#	{ist
16b	es
16cc#	ins
=23	=23
8.dd#	Wei-
8cc#	-te
16b	ge-
=24	=24
4.f#}	-schwa2rmt}
=26	=26
4r	.
{8b	{Doch
=27	=27
4b	nun
8b	die
=28	=28
4cc#	Son-
16cc#	-ne
16cc#	ge-
=29	=29
(8.g#	-schie-
16a)	|
8g#}	-den}
=30	=30
16r	.
{16g#	{und
8ddn	Stil-
16ddn	-le
16ddn	sich
=31	=31
4cc#	senkt
16ccn	auf
16ccn	den
=32	=32
4.b}	Hain.}
=33	=33
{(8b	{fu2hlt
8a)	|
8gn	es:
=34	=34
16r	.
16gn	bei
4ccn	dir
=35	=35
4ccn	ist
8ccn	der
=36	=36
4ccn	Frie-
8cn}	-den,}
=37	=37
16r	.
{16e	{die
[4ee	Ruh'
=38	=38
4ee]	|
8b	bei
=39	=39
(4a	dir
16g#)	|
16f#	al-
=40	=40
4e}	-lein.}
8r	.
*-	*-
